assets/svg/icon_story_switchcamera.svg

<svg width="24" height="24" viewBox="0 0 24 24" fill="none" xmlns="http://www.w3.org/2000/svg">
    <path
        d="M5.34385 11.4665H4.59385H5.34385ZM5.34385 12.7998L4.81561 13.3322C5.10802 13.6223 5.57968 13.6223 5.87209 13.3322L5.34385 12.7998ZM7.21594 11.9989C7.50998 11.7071 7.51185 11.2323 7.22011 10.9382C6.92837 10.6442 6.4535 10.6423 6.15946 10.9341L7.21594 11.9989ZM4.52824 10.9341C4.2342 10.6423 3.75933 10.6442 3.46759 10.9382C3.17585 11.2323 3.17772 11.7071 3.47176 11.9989L4.52824 10.9341ZM17.1647 8.39259C17.3816 8.74546 17.8435 8.85565 18.1964 8.63872C18.5492 8.42179 18.6594 7.95988 18.4425 7.60701L17.1647 8.39259ZM12.0631 4.0498C7.94351 4.0498 4.59385 7.36482 4.59385 11.4665H6.09385C6.09385 8.20433 8.76081 5.5498 12.0631 5.5498V4.0498ZM4.59385 11.4665L4.59385 12.7998H6.09385L6.09385 11.4665H4.59385ZM5.87209 13.3322L7.21594 11.9989L6.15946 10.9341L4.81561 12.2674L5.87209 13.3322ZM5.87209 12.2674L4.52824 10.9341L3.47176 11.9989L4.81561 13.3322L5.87209 12.2674ZM18.4425 7.60701C17.1311 5.47381 14.7637 4.0498 12.0631 4.0498V5.5498C14.2248 5.5498 16.1167 6.68798 17.1647 8.39259L18.4425 7.60701Z"
        fill="white" />
    <path
        d="M18.6519 11.2002L19.1791 10.6668C18.887 10.378 18.4168 10.378 18.1247 10.6668L18.6519 11.2002ZM16.7757 12.0001C16.4811 12.2913 16.4783 12.7662 16.7695 13.0608C17.0607 13.3554 17.5355 13.3581 17.8301 13.0669L16.7757 12.0001ZM19.4737 13.0669C19.7683 13.3581 20.2431 13.3554 20.5343 13.0608C20.8255 12.7662 20.8227 12.2913 20.5281 12.0001L19.4737 13.0669ZM6.78278 15.6063C6.56525 15.2538 6.10315 15.1444 5.75065 15.3619C5.39816 15.5795 5.28875 16.0416 5.50628 16.3941L6.78278 15.6063ZM11.907 19.9502C16.038 19.9502 19.4019 16.6379 19.4019 12.5335H17.9019C17.9019 15.793 15.2262 18.4502 11.907 18.4502V19.9502ZM19.4019 12.5335V11.2002H17.9019V12.5335H19.4019ZM18.1247 10.6668L16.7757 12.0001L17.8301 13.0669L19.1791 11.7336L18.1247 10.6668ZM18.1247 11.7336L19.4737 13.0669L20.5281 12.0001L19.1791 10.6668L18.1247 11.7336ZM5.50628 16.3941C6.82284 18.5275 9.19839 19.9502 11.907 19.9502V18.4502C9.73459 18.4502 7.83463 17.3108 6.78278 15.6063L5.50628 16.3941Z"
        fill="white" />
</svg>

<svg xmlns="http://www.w3.org/2000/svg" width="24" height="24" fill="none"><path fill="#fff" d="M5.344 11.467h-.75zm0 1.333-.528.532a.75.75 0 0 0 1.056 0zm1.872-.801a.75.75 0 0 0-1.057-1.065zm-2.688-1.065A.75.75 0 1 0 3.472 12zm12.637-2.541a.75.75 0 1 0 1.277-.786zM12.063 4.05c-4.12 0-7.47 3.315-7.47 7.417h1.5c0-3.263 2.668-5.917 5.97-5.917zm-7.47 7.417V12.8h1.5v-1.334zm1.28 1.865L7.215 12l-1.057-1.065-1.343 1.333zm0-1.065-1.345-1.333L3.472 12l1.344 1.333zm12.57-4.66a7.48 7.48 0 0 0-6.38-3.557v1.5a5.98 5.98 0 0 1 5.102 2.843zM18.652 11.2l.527-.533a.75.75 0 0 0-1.054 0zm-1.876.8a.75.75 0 0 0 1.054 1.067zm2.698 1.067A.75.75 0 1 0 20.528 12zm-12.691 2.54a.75.75 0 1 0-1.277.787zm5.124 4.343c4.131 0 7.495-3.312 7.495-7.416h-1.5c0 3.259-2.676 5.916-5.995 5.916zm7.495-7.416V11.2h-1.5v1.334zm-1.277-1.867L16.775 12l1.055 1.067 1.35-1.333zm0 1.067 1.349 1.333L20.528 12l-1.349-1.333zm-12.619 4.66a7.51 7.51 0 0 0 6.401 3.556v-1.5a6.01 6.01 0 0 1-5.124-2.844z"/></svg>
